dist/images/icons/user-cabinet.svg

<svg width="18" height="21" viewBox="0 0 18 21" fill="none" xmlns="http://www.w3.org/2000/svg">
<path d="M8.55023 10.1341C9.87375 10.1341 11.0197 9.65936 11.9563 8.72276C12.8926 7.78635 13.3674 6.64057 13.3674 5.3169C13.3674 3.99363 12.8927 2.84773 11.9561 1.91097C11.0195 0.974687 9.87359 0.5 8.55023 0.5C7.22652 0.5 6.08071 0.974687 5.1443 1.91113C4.2079 2.84757 3.73302 3.99351 3.73302 5.3169C3.73302 6.64057 4.20786 7.78651 5.14434 8.72295C6.08106 9.65924 7.22699 10.1341 8.55019 10.1341H8.55023ZM5.97317 2.73984C6.69168 2.02129 7.53461 1.67203 8.55023 1.67203C9.5657 1.67203 10.4087 2.02129 11.1274 2.73984C11.846 3.45851 12.1954 4.30155 12.1954 5.31687C12.1954 6.33249 11.846 7.17542 11.1274 7.89409C10.4087 8.6128 9.5657 8.96205 8.55023 8.96205C7.53488 8.96205 6.69203 8.61264 5.97317 7.89409C5.25446 7.17557 4.90504 6.33253 4.90504 5.3169C4.90504 4.30155 5.25446 3.45851 5.97317 2.73984ZM16.979 15.879C16.952 15.4893 16.8974 15.0641 16.8169 14.6153C16.7358 14.163 16.6313 13.7354 16.5061 13.3447C16.3767 12.9408 16.2011 12.5419 15.9837 12.1597C15.7583 11.7629 15.4934 11.4175 15.1962 11.1332C14.8853 10.8358 14.5048 10.5967 14.0647 10.4223C13.6262 10.2488 13.1402 10.161 12.6203 10.161C12.4162 10.161 12.2187 10.2447 11.8374 10.493C11.5664 10.6695 11.2945 10.8448 11.0218 11.0188C10.7598 11.1857 10.4049 11.3421 9.96652 11.4837C9.53882 11.6221 9.10457 11.6923 8.67578 11.6923C8.24734 11.6923 7.81305 11.6221 7.38504 11.4837C6.94715 11.3422 6.59207 11.1859 6.33051 11.0189C6.027 10.825 5.75239 10.648 5.51418 10.4928C5.13317 10.2446 4.93571 10.1608 4.73157 10.1608C4.21153 10.1608 3.72571 10.2488 3.28731 10.4225C2.84755 10.5966 2.46685 10.8357 2.15571 11.1334C1.85849 11.4178 1.59361 11.7631 1.36837 12.1597C1.15126 12.5419 0.975482 12.9406 0.846068 13.3448C0.721069 13.7356 0.616577 14.163 0.535405 14.6153C0.454819 15.0636 0.400366 15.4888 0.373335 15.8795C0.346772 16.2614 0.333374 16.6589 0.333374 17.0605C0.333374 18.1045 0.665248 18.9497 1.3197 19.573C1.96607 20.1881 2.82118 20.5 3.86134 20.5H13.4915C14.5313 20.5 15.3864 20.1881 16.033 19.573C16.6876 18.9501 17.0194 18.1047 17.0194 17.0603C17.0193 16.6574 17.0057 16.2599 16.979 15.879ZM15.2249 18.7238C14.7978 19.1303 14.2307 19.3279 13.4913 19.3279H3.86137C3.12181 19.3279 2.55478 19.1303 2.12782 18.724C1.709 18.3253 1.50544 17.781 1.50544 17.0605C1.50544 16.6857 1.51779 16.3157 1.54255 15.9605C1.56661 15.612 1.61591 15.2291 1.68904 14.8223C1.76118 14.4206 1.85302 14.0435 1.96228 13.7022C2.06712 13.3749 2.21009 13.0508 2.38739 12.7386C2.55661 12.441 2.7513 12.1858 2.96614 11.9801C3.16712 11.7877 3.42044 11.6302 3.71887 11.5121C3.99489 11.4028 4.30512 11.343 4.64188 11.334C4.6829 11.3559 4.75602 11.3975 4.87442 11.4747C5.11536 11.6317 5.39305 11.8109 5.70008 12.0069C6.04618 12.2276 6.49199 12.4269 7.02469 12.5988C7.56926 12.7749 8.12469 12.8643 8.67597 12.8643C9.2273 12.8643 9.78285 12.7749 10.3271 12.599C10.8603 12.4267 11.306 12.2276 11.6525 12.0066C11.9667 11.8058 12.2366 11.6319 12.4775 11.4747C12.596 11.3976 12.6691 11.3558 12.7101 11.334C13.047 11.343 13.3572 11.4028 13.6334 11.5121C13.9317 11.6302 14.185 11.7878 14.386 11.9801C14.6008 12.1856 14.7955 12.4409 14.9647 12.7388C15.1422 13.0508 15.2853 13.3751 15.39 13.702C15.4994 14.0438 15.5914 14.4207 15.6634 14.8222C15.7364 15.2297 15.7858 15.6127 15.8099 15.9606V15.9609C15.8348 16.3148 15.8473 16.6847 15.8474 17.0605C15.8473 17.7812 15.6437 18.3253 15.2249 18.7238H15.2249Z" fill="#2B2A29"/>
</svg>

<svg width="18" height="21" fill="none" xmlns="http://www.w3.org/2000/svg"><path d="M8.55 10.134c1.324 0 2.47-.475 3.406-1.411.937-.937 1.411-2.082 1.411-3.406 0-1.323-.474-2.47-1.41-3.406C11.018.975 9.873.5 8.55.5S6.08.975 5.144 1.911c-.936.937-1.411 2.083-1.411 3.406 0 1.324.475 2.47 1.411 3.406.937.936 2.083 1.411 3.406 1.411zM5.973 2.74c.719-.719 1.562-1.068 2.577-1.068 1.016 0 1.859.35 2.577 1.068.719.719 1.068 1.562 1.068 2.577s-.349 1.858-1.068 2.577c-.718.719-1.561 1.068-2.577 1.068-1.015 0-1.858-.35-2.577-1.068-.719-.718-1.068-1.561-1.068-2.577 0-1.015.35-1.858 1.068-2.577zM16.98 15.879a11.87 11.87 0 00-.162-1.264 9.926 9.926 0 00-.31-1.27 6.278 6.278 0 00-.523-1.185 4.468 4.468 0 00-.788-1.027 3.473 3.473 0 00-1.131-.71 3.91 3.91 0 00-1.445-.262c-.204 0-.401.084-.783.332-.27.176-.543.352-.815.526-.262.167-.617.323-1.055.465a4.19 4.19 0 01-1.291.208c-.429 0-.863-.07-1.291-.208-.438-.142-.793-.298-1.054-.465-.304-.194-.579-.371-.817-.526-.38-.248-.578-.332-.782-.332-.52 0-1.006.088-1.445.261a3.47 3.47 0 00-1.131.711c-.298.285-.562.63-.788 1.027a6.29 6.29 0 00-.522 1.185c-.125.39-.23.818-.31 1.27-.081.449-.136.874-.163 1.264-.026.382-.04.78-.04 1.182 0 1.044.332 1.889.987 2.512.646.615 1.501.927 2.541.927h9.63c1.04 0 1.895-.312 2.542-.927.655-.623.986-1.468.986-2.513 0-.403-.013-.8-.04-1.181zm-1.754 2.845c-.427.406-.994.604-1.734.604h-9.63c-.74 0-1.306-.198-1.733-.604-.419-.399-.623-.943-.623-1.663 0-.375.013-.745.038-1.1.024-.349.073-.732.146-1.139.072-.401.164-.778.273-1.12a5.12 5.12 0 01.425-.963 3.31 3.31 0 01.58-.759c.2-.192.453-.35.752-.468.276-.11.586-.169.923-.178.04.022.114.064.232.14.241.158.519.337.826.533.346.22.792.42 1.325.592.544.176 1.1.265 1.651.265.551 0 1.107-.09 1.651-.265.533-.172.979-.371 1.325-.592.315-.201.585-.375.825-.532.119-.077.192-.12.233-.141.337.009.647.069.923.178.299.118.552.276.753.468.215.206.41.46.579.759.177.312.32.636.425.963.11.342.201.719.273 1.12.073.408.123.79.147 1.139.025.354.037.724.037 1.1 0 .72-.203 1.264-.622 1.663z" fill="#2B2A29"/></svg>
